X:1
T:Title
%%score ( 1 2 ) { 3 | 4 }
L:1/8
Q:1/4=107
M:4/4
K:Eb
V:1 treble nm="Grand Piano, Staff 1"
V:2 treble 
V:3 bass nm="Choir Pad, Theodora (Handel), 77.77"
V:4 bass 
V:1
 [EB]2 E2 [Ge]2 dc | [GB]2 c-[Ec] F4 | z4 A2 z2 | [CF]2 E2 [DB]4 | [EB]2 E2 [Ge]2 dc | %5
w: By~Arranged~from~George~F.~Handel,~1749 * * * *|||||
 [GB]2 c-[Ec] F4 | z4 A2 z2 | [CF]2 E2 [DB]4 | [Ee]2 dc [DB]2 [FA]2 | .E2 .F2 z4 | %10
w: |||||
 [EB]2 [Ec]2 [Ad]2 e-[Fe] | [EG]2 [DF]2 E4- | E4 z4 |] %13
w: |||
V:2
 z4 z2 A2 | z2 .F2 z4 | [EG]2 F2 CD [EG]2 | x8 | z4 z2 A2 | z2 .F2 z4 | [EG]2 F2 CD [EG]2 | x8 | %8
 z2 E2 z4 | G-[DG]C-[CE] [B,D]4 | z4 z2 .G2 | x8 | x8 |] %13
V:3
 G,2 G,2 B,2 A,2 | E2 C2 D4 | B,2 B,2 A,2 B,2 | A,2 =A,2 B,4 | G,2 G,2 B,2 A,2 | E2 C2 D4 | %6
 B,2 B,2[K:bass] A,2 B,2 | A,2 =A,2 B,4 | B,2 A,2 F,2 B,2 | B,2 A,G, F,4 | B,2 A,2 A,2 A,2 | %11
 B,2 B,A, G,4- | G,4 z4 |] %13
V:4
 E,2 E,2 E,2 F,2 | G,2 A,2 B,4 | E,2 D,2 C,2 B,,2 | A,,2 C,2 B,,4 | E,2 E,2 E,2 F,2 | G,2 A,2 B,4 | %6
 E,2 D,2 C,2 B,,2 | A,,2 C,2 B,,4 | G,,2 A,,2 B,,2 D,2 | E,2 A,,2 B,,4 | G,2 z2 F,2 E,2 | %11
 B,,2 B,,2 E,4- | E,4 z4 |] %13

